X:74
T:The Glountane Polka
B:Terry "Cuz" Teahan "Sliabh Luachra on Parade" 1980
Z:Patrick Cavanagh
M:2/4
L:1/8
R:Polka
K:D
F | G2 F2 | E/F/E D/F/A | Bc BA | d2 df | 
e2 dB | AF D>E | FB AF | E2 E :| 
A | Be ef | ed B/c/d | Be ef | d2 d2 | 
e2 dB | AF D>E | FB AF | E2 E :|| 

